X:586
T: FUCHS BEISS MICH NICHT
N: E1897
O: Europa, Mitteleuropa, Deutschland
R: Kinder - Lied, Spiel
M: 2/4
L: 1/16
K: G
d2 | BcBAG2d2 | BcBAG2
d2 | e2d2c2B2 | A2A2A4 |
A2A2F2D2 | d2d2B2
d2 | B2G2AGAF | G4z2

@@@ Tune index: 5270
